www/assets/icons/favorite_border.svg

<svg width="24" height="24" viewBox="0 0 24 24" xmlns="http://www.w3.org/2000/svg" fill='currentColor'><path d="M16.5 2.82495C14.76 2.82495 13.09 3.63495 12 4.91495C10.91 3.63495 9.24 2.82495 7.5 2.82495C4.42 2.82495 2 5.24495 2 8.32495C2 12.105 5.4 15.185 10.55 19.865L12 21.175L13.45 19.855C18.6 15.185 22 12.105 22 8.32495C22 5.24495 19.58 2.82495 16.5 2.82495ZM12.1 18.375L12 18.475L11.9 18.375C7.14 14.065 4 11.215 4 8.32495C4 6.32495 5.5 4.82495 7.5 4.82495C9.04 4.82495 10.54 5.81495 11.07 7.18495H12.94C13.46 5.81495 14.96 4.82495 16.5 4.82495C18.5 4.82495 20 6.32495 20 8.32495C20 11.215 16.86 14.065 12.1 18.375Z"/></svg>

<svg xmlns="http://www.w3.org/2000/svg" width="24" height="24" viewBox="0 0 24 24" fill='currentColor'><path d="M16.5 2.825c-1.74 0-3.41.81-4.5 2.09-1.09-1.28-2.76-2.09-4.5-2.09-3.08 0-5.5 2.42-5.5 5.5 0 3.78 3.4 6.86 8.55 11.54l1.45 1.31 1.45-1.32c5.15-4.67 8.55-7.75 8.55-11.53 0-3.08-2.42-5.5-5.5-5.5m-4.4 15.55-.1.1-.1-.1C7.14 14.065 4 11.215 4 8.325c0-2 1.5-3.5 3.5-3.5 1.54 0 3.04.99 3.57 2.36h1.87c.52-1.37 2.02-2.36 3.56-2.36 2 0 3.5 1.5 3.5 3.5 0 2.89-3.14 5.74-7.9 10.05"/></svg>
